X:82
T:Scarborough Fair
Z:Jack Campin, http://www.campin.me.uk/
F:Jack Campin's Nine-Note Tunebook
% last edit 03-02-2013
B:Cecil Sharp, A Selection of some Less Well-Known Folk Songs, v2, 1916
N:rebarred
M:6/8
L:1/8
Q:3/8=60
K:FDor
z|FGF EFG| A>BA  G2 z| F2G (AG)F|FAB  c2
F|c2c dcB| cFF  (EF)G|(AB)A GGF |CD=E F2||
z|FGF EFG|(AB)A  GG z| F2G (AG)F|FAB  c2
F|ccc dcB| c2 F (EF)G|(AB)A GGF |CD=E F2|]

